X:1
T:Reilly's Daughter
M:4/4
L:1/4
K:F
 C C C C| F G A2| A/2A/2 A/2A/2 A A| B A G F| C/2C/2 C/2C/2 C C| F G A2|\
 A A/2A/2 A A| B A G F| C/2C/2 C C2| F/2F/2 G A2| A A/2A/2 A A/2A/2|\
 B A G F| C/2C/2 C C C| F G A2| B/2B/2 B A G| F3 z|
